X: 425
T:Paddy Fahy Jig
M:6/8
L:1/8
S:Michael Rooney/Colm Regan/June NiChormaic
R:Jig
N:Played in C ( "D" Shapes on a C whistle )
N:? Means I'am unsure what this bar should be......
N:Posted to the woodenflute mailing list August 2001
Z:Pat Higgins
Z:abc headers added Steve Mansfield
K:D
|FAD EFG|AdB cde|f2d a2f|ged cAG|
|F2D G2E|ADE FGA| (4Bcdc dcA|1 GEA D3:|2 GEA DFA||
|dcd Adf|ag#b afd|Bee e2f|ged cAG|
|?DFA Adf?|ag#b afd|(4Bcdc dcA|GEA DFA:||
<end>
<start>
